X: 34440
T: Ricketts
R: reel
M: 4/4
K: Dmajor
d2 f>d B2 d>B|A2 B>A F4|.e2 .f2 .g2 .f2|e>dc>B A>Bc>A|
d2 f>d B2 d>B|A2 B>A F4|e2 f2 g>ec>A|.d2 .f2 d2:|
a a2 f d2 f>f|g b2 g e2 g>g|f a2 f d2 f2|e>dc>B A>Bc>A|
f a2 f d2 f>f|g b2 g e4|a>fd>f g>ec>A|.d2 .f2 d2:|

